X:1
T:African Suite
T:Mississippi Shivers
T:ZEZ CONFREY
T:High Hattin'
T:ZEZ CONFREY
T:Kinda Careless
T:ZEZ CONFREY
T:Copyright 1924 by Jack Mills Inc
T:Copyright 1924 by Jack Mills Inc
T:Copyright 1924 by Jack Mills Inc
T:Copyright 1924 by Jack Mills Inc
T:Copyright 1924 by Jack Mills Inc
T:Copyright 1924 by Jack Mills Inc
T:Copyright 1924 by Jack Mills Inc
T:Copyright 1924 by Jack Mills Inc
T:Copyright 1924 by Jack Mills Inc
C:Zez Confrey
Z:Copyright 1924 by Jack Mills Inc
%%score { ( 1 3 ) | ( 2 4 5 ) }
L:1/8
Q:1/4=130
M:4/4
K:Eb
V:1 treble nm="Piano" snm="Pno."
V:3 treble 
V:2 bass 
V:4 bass 
V:5 bass 
V:1
"^Tempo di \"low-down\""!mf!"^(SLOW DRAG)" z8 | z8 |: %2
!mp! z .[Bb].[cc'].[ee'] !>![Bb].[cc'].[ee']!>![Bb] | %3
!<(! .[cc'].[ee'].[ff'].[aa']!<)!{/[_g_g']} !>![ff'].[ee']{/[gg']} !>![ff'].[ee'] | %4
{/[_d_d']} !>![cc'].[Bb]{/[dd']} !>![cc'].[Bb]!>(!{/[_G_g]} !>![Ff].[Ee]{/[Gg]} !>![Ff]!tenuto![Ee]-!>)! | %5
 [Ee].[=B=g] !tenuto![eb]2 .[B^f] !tenuto![eb]2 .[Bf] | %6
 z .[Bb].[cc'].[ee'] !>![Bb].[cc'].[ee']!>![Bb] | %7
!<(! .[cc'].[ee'].[ff'].[aa']!<)!{/[_g_g']} !>![ff'].[ee']{/[gg']} !>![ff'].[ee'] | %8
{/[_d_d']} !>![cc'].[Bb]{/[dd']} !>![cc'].[Bb]!>(!{/[_G_g]} !>![Ff].[Ee]{/[Gg]} !>![Ff]!tenuto![Ee]-!>)! | %9
 [Ee].[=B=g] !tenuto![eb]2 !tenuto![Beb]2 !tenuto![cec']2 | %10
!mf! .[^c=a^c'] !>![dbd']2 .[cac'] !>![=c_a=c']2 .[^c=a^c'][dbd']- | %11
 [dbd'].[^c=a^c'] !>![=c_a=c']2 .[_GB_g] !tenuto![GBg]2 [E=Ge]- | %12
 [EGe]4 .[_GB_g] !tenuto![GBg]2 [E=Ge]- |1 [EGe]4 !>![B=db]4 :|2 %14
{/x-} [EGe]4- [EGe]!<(! .[Bb] .[cc'].[Bb]!<)! |:!f!!<(! z2 !///-!g'3-"^(tremolo)" g3-!<)! | %16
!ff! [gg']!>(!.[ee'].[cc'].[Bb]!>)!!f!{/[_d_d']} !>![cc'].[Bb]{/[dd']} !>![cc'].[Bb] | %17
!>(!{/[_d_d']} !>![cc'].[Bb] [_G_g][Ee]-!>)! [Ee]"_(lightly)"[Fc]/^F/ .B/.[Gc]/.F/.B/ | %18
 !>![=Fc][Fc]/^F/ .B/.[_Gc]/.F/.B/ !>![=Fc][Fc]/^F/ .B/.[Gc]/.F/.B/ | %19
 !>![=Fc].[Bb].[cc'].[Bb] z2"_(tremolo)"!<(! (!///-!!>!g' g | %20
 !///-!g'2 g2-!<)! [gg'])!ff!.[ee']!>(!.[cc'].[Bb]!>)! | %21
{/[_d_d']} !>![cc'].[Bb]{/[dd']} !>![cc'].[Bb]!>(!{/[dd']} !>![cc'].[Bb][_G_g][Ee]-!>)! | %22
 [Ee]"_(lightly)"[Fc]/^F/ .B/.[_Gc]/.F/.B/ !>![=Fc][Fc]/^F/ .B/.[Gc]/.F/.B/ | %23
 !>![=Fc] z !tenuto![Begb]2 !tenuto![Beb]2 !tenuto![ce=ac']2 | %24
 z!<(! (c/^c/ d/e/=e/f/!<)! !>!d'/d/_e/!>!d'/ c/_d/!>!b/=B/ |1 %25
 c/!>!a/!>(!=A/_B/ !>!g/G/_A/f/ .[Be])!>)! .[Bb] .[cc'].[Bb] :|2 %26
 (c/!>(!!>!a/=A/_B/ !>!g/G/_A/f/ [Be])!>)! z !^![egbe']"_Fine" z |] %27
[K:Ab][M:4/4]!f!"^TRIO" [G,B,E][G,B,E][G,B,E]!>![A,CF]- [A,CF][B,DG] [CEA]2 | %28
 [B,DG][A,CF][G,B,E]!>![A,CF]- [A,CF][B,DG] [CEA]2 | %29
 [B,DG]!<(![A,CF][G,B,E]!>![A,CF]- [A,CF][B,DG]!<)! [CEA]2 | !>![DGB]2 z2 !^![egd'e'] || %31
 .[Ede] .[Ede].[_Fd_f] |: %32
!p!!mf!"_-" !tenuto![_Fd_f]2 .[Bdfb]!>![Bdfb]- [Bdfb].[Fdf].[Fdf].[=Fd=f] | %33
 !tenuto![Fdf]2 .[cegc']!>![cegc']- [cegc'].[Gdg] .[Gdg].[Bdb] | %34
 !tenuto![Beb]2 .[Aca]!>![Gcg]- [Gcg].[Aa] .[Bb].[cc'] | %35
 [eac'e']4!<(! (!tenuto![eae']2 [=ea=d'=e']2!<)! | %36
 !^![fg_d'f']) z .[c_ec']!tenuto![dfd']- [dfd'].[=Ac=a] !tenuto![Bdb]2 | %37
 !tenuto![Fdf]4!<(! ([egd'e']2 [=egd'=e']2!<)! | %38
 !^![fac'f']) z .[=Be=b]!>![cec']-!>(! [cec'].[G=Bg] .[Aca]2!>)! | %39
 !tenuto![Fcf]4- [Fcf].[Ece] .[Ece].[_Fc_f] | %40
 !tenuto![_Fd_f]2 .[Bdfb]!>![Bdfb]- [Bdfb].[Fdf].[Fdf].[=Fd=f] | %41
 !tenuto![Fdf]2 .[cegc']!>![cegc']- [cegc'].[Gdg] .[Gdg].[Bdb] | %42
 !tenuto![Beb]2 .[Aca]!>![Gcg]- [Gcg].[Aa] .[Bb].[cc'] | !tenuto![eac'e']6!<(! ([eae']2 | %44
 !^![=e^g=d'=e'])!<)! z .[=B=d^g=b]!>![Bdgb]- [Bdgb]!<(!.[cc'].[^c^c'].[=d=d']!<)! | %45
 !^![_e_a=c'_e'] z .[=ceac']!>![ceac']-!<(! [ceac'].[cc'].[_d_d'].[=d=d']!<)! | %46
 !tenuto![ege']2 .[=dg=d']!>(!!>![ege']- [ege'].[cec']!>)! [B_db]2 |1 %47
 !tenuto![Aca]2!f! (!>![G=dg]2!>(! [G_df])!>)! .[Ede] .[Ede].[_Fd_f] :|2 %48
 !tenuto![Aca]4"_D.C. al Fine" !^![Acea] z z2 ||[K:Eb][M:2/2]!pp![Q:1/4=180]"^Allegretto" z8 | %50
 z4 z2 z (E |: !>![G,_DF]2) z (E !>![G,DF]2) z (E | !>![G,_DF]) [G,DF]2 [G,DF]- [G,DF]2 z (A | %53
 !>![C_GB]2) z (A !>![CGB]2) z (A | !>![C_GB]) [CGB]2 [CGB]- [CGB]2 z2 | %55
 z2!<(! [FAc]>B [=EGc]2 [EG=c]>B | [FAc]2 [FAc]>B [FAc]2!<)! z2 | z3/2!>(! (^f<!>!ge/ c>BG>_G | %58
 (3F=E_E =D>_D C>_C B,)!>)! (E | !>![G,_DF]2) z (E !>![G,DF]2) z (E | %60
 !>![G,_DF]) [G,DF]2 [G,DF]- [G,DF]2 z (A | !>![C_GB]2) z (A !>![CGB]2) z (A | %62
 !>![C_GB]) [CGB]2 [CGB]- [CGB]2 z2 | z2 [FAc]>B [=EGc]2 [EG=c]>B | [FAc]2 [FAc]>B [FAc]2 z2 | %65
 z3/2 (^f<ge/ c>BG>^F |1 G>E [CA]>B, [EG]2) z (E :|2 (G>)E [CA]>B, [EG]2) z2 || %68
!mf! z3/2 (^f<!>!ge/ c>BG>^F | GBc_d- d4) | z3/2 (^f<!>!ge/ c>BG>^F | GBc_d- d4) | %72
 z3/2 (=b<!>!c'a/ f>ec>=B | cef[=A_g]- [Ag])(e [_Af]2) | z3/2 (^f<!>!ge/ c>BG>^F | %75
 GBc[Gd]- [Gd])B [Gc]2 | z3/2 (^f<!>!g_e/ c>B=A>^F | cef[=A_g]- [Ag])(e [_Af]2) | %78
 [Ge]2 (3(GAB A>GF>A | G) (!>![^Fc]2 !>!B [EGe]2) z2 ||!pp! z8 | z4 z2 z (E || %82
 !>![G,_DF]2) z (E !>![G,DF]2) z (E | !>![G,_DF]) [G,DF]2 [G,DF]- [G,DF]2 z (A | %84
 !>![C_GB]2) z (A !>![CGB]2) z (A | !>![C_GB]) [CGB]2 [CGB]- [CGB]2 z2 | %86
 z2!<(! [FAc]>B [=EGc]2 [EG=c]>B | [FAc]2 [FAc]>B [FAc]2!<)! z2 | z3/2!>(! (^f<!>!ge/ c>BG>_G | %89
 (3F=E_E =D>_D C>_C B,)!>)! (E | !>![G,_DF]2) z (E !>![G,DF]2) z (E | %91
 !>![G,_DF]) !>![G,DF]2 !>![G,DF]- [G,DF]2 z (A | !>![C_GB]2) z (A !>![CGB]2) z (A | %93
 !>![C_GB]) !>![CGB]2 !>![CGB]- [CGB]2 z2 | z2 [FAc]>B [=EGc]2 [EG!courtesy!=c]>B | %95
 [FAc]2 [FAc]>B [FAc]2 z2 | z3/2 (^f<ge/ c>BG>^F | G>E [CA]>B, [EG]2) z2 |] %98
[K:Ab][M:2/2]!p![Q:1/4=170]"^Moderato" z | %99
"_marcato""^NOTE: This Composition can be played either as a slow Drag or as a quick staccato novelty" z8 | %100
 z2 [A,CFA]2!<(! z2 [E_GBe]2 | z2 [Acfa]2 z2 [e_gbe']2!<)! | %102
!f!!8va(! .a!>(! !>![c'f'a']2!8va)! .e !>![_gbe']2 .A!>![cfa]- | %103
 [cfa].E !>![_GBe]2 .A, !>![CFB]2!>)!!p! (!>!E- || E>_GF>E (3!>!GFE A>B | %105
{/=B} !>!c>_B{/=B} !>!c>_B{/=B} !>!c>A F>E | !>!_G>)(b{/=b} !>!c'>_b{/=b} !>!c'>a f>e | %107
 c>B{/=B} !>!c>A F>E C2) | z3/2 (_c<BA/ (3cBA d>e |{/=e} f>_e{/=e} f>_e{/=e} f>d B>A | _c8-) | c8 | %112
 z3/2 E<F^F/ G>[d!courtesy!=f]F>G | [ce]>^FG>[=B=d] F>G [_B_d][Ac]- | [Ac](E=FE [C_G]FE[CG] | %115
 FE[C_G]F E[CG]FE) | z3/2 (f'/{/^f'}!>!=g'>e' c'>bg>f | g>ec>B G>E [Gc]2 | %118
 [CA]2) (3(EFE =D>E _D>E | C2) z2 z4 |:[K:Db]!mf!!f!"_-" z .E !>![Bce]2 .E !>![Bce]2 .E | %121
 !>![Bce].E .[Bce]!>![_Ac=e] z4 | z .F !>![Bdf]2 .F !>![Bdf]2 .F | !>![Bdf].F .[Bdf]!>![_A=df] z4 | %124
 z .e !>![!courtesy!_df]2 .e !>![df]2 .e | !>![df]2 .e!>![df]- [df].e !>![df]2 | %126
 z ([c=a] e!courtesy!_g (3[fc']gb [c=a]e | !courtesy!_g[=Af]Be [Fc]_GB[C=A]) | %128
 z .E !>![Bce]2 .E !>![Bce]2 .E | !>![Bce].E .[Bce]!>![_Ac=e] z4 | z .F !>![Bdf]2 .F !>![Bdf]2 .F | %131
 !>![Bdf].F .[Bdf]!>![_A=df] z4 | z3/2 e<[df]e/ [df] e2 e | [Aa]2 [Bb]2 [_F_f] [Ee]2 [Dd]- | %134
 [Dd]2 [DAd]2 [D=Gd] [D_Gd]2 [D=Fd]- |1 [DFd]2 z2 z4 :|2{/x-} [DFd]>A !>![CGB]2 !>![DFd]2 z2 || %137
[K:Ab]"_marcato" z8 | z2 [A,CFA]2!<(! z2 [E_GBe]2 | z2 [Acfa]2 z2 [e_gbe']2!<)! | %140
!f!!8va(! .a!>(! !>![c'f'a']2!8va)! .e !>![_gbe']2 .A!>![cfa]- | %141
 [cfa].E !>![_GBe]2 .A, !>![CFB]2!>)!!p! (!>!E- || E>_GF>E (3!>!GFE A>B | %143
{/=B} !>!c>_B{/=B} !>!c>_B{/=B} !>!c>A F>E | !>!_G>)(b{/=b} !>!c'>_b{/=b} !>!c'>a f>e | %145
 c>B{/=B} !>!c>A F>E C2) | z3/2 (_c<BA/ (3cBA d>e |{/=e} f>_e{/=e} f>_e{/=e} f>d B>A | _c8-) | c8 | %150
 z3/2 E<F^F/ G>[d!courtesy!=f]F>G | [ce]>^FG>[=B=d] F>G [_B_d][Ac]- | [Ac](E=FE [C_G]FE[CG] | %153
 FE!>![C_G]F E!>![CG]FE) | z3/2 f'/{/^f'}!>!=g'>e' c'>bg>f |{/^f} !>!g>ec>B G>EC>A, | %156
 z2"^rit." !>![A,CE]6- | [A,CE]6 z2 |] %158
V:2
 .[E,,E,]2 .[B,EG]2 .[E,,E,]2 .[B,EG]2 | .[E,,E,]2 .[B,EG]2 .[E,,E,]2 .[B,EG]2 |: %2
 [E,,E,]2 [B,EG]2 [E,,E,]2 [B,EG]2 | [E,,E,]2 [B,EG]2 [A,,,A,,]2 [A,C_G]2 | %4
 [E,,E,]2 [_DE=G]2 [A,,,A,,]2 [_G,A,C]2 | [E,,E,]2 [B,E!courtesy!=G]2 [B,,,B,,]2 [A,B,D^F]2 | %6
 [E,,E,]2 [B,EG]2 [E,,E,]2 [B,EG]2 | [E,,E,]2 [B,EG]2 [A,,,A,,]2 [A,C_G]2 | %8
 [E,,E,]2 [_DE=G]2 [A,,,A,,]2 [_G,A,C]2 | %9
 [E,,E,]2 [B,E!courtesy!=G]2 !arpeggio![G,,B,]2 !arpeggio![^F,,=A,]2 | %10
 !arpeggio![=F,,_A,]2 [B,DA]2 [B,,,B,,]2 [B,DA]2 | !arpeggio![F,,A,]2 [B,DA]2 [B,,,B,,]2 [A,B,D]2 | %12
 !arpeggio![E,,E,]2 !arpeggio![B,,,B,,]2 !arpeggio![C,,C,]2 !arpeggio![D,,D,]2 |1 %13
 !arpeggio![E,,E,]2 !arpeggio!!>![B,,,B,,]2 !>![A,B,D^F]2 !>![B,,B,]2 :|2 %14
 !arpeggio![E,,E,]2 !arpeggio!!>![B,,,B,,]2 !>![E,,E,] z z2 |: %15
 !arpeggio!!>![B,,_D]2 [DEGB]2 [E,,E,]2 [DEGB]2 | %16
 !arpeggio![B,,_D]2 [DEG]2 !arpeggio![B,,E,G,D]2 !arpeggio![B,,E,G,D]2 | %17
 !arpeggio![B,,E,G,_D]2 !arpeggio![A,,E,_G,C]2 .[E,,E,].[=G,B,E] .B,,.[A,B,=D] | %18
 .[E,,E,].[G,B,E] .B,,.[A,B,D] .[E,,E,].[G,B,E] .B,,.[A,B,D] | %19
 [E,,E,] z [G,B,E]2 !arpeggio!!>![B,,_D]2 [DEGB]2 | [E,,E,]2 [DEGB]2 !arpeggio![B,,_D]2 [DEG]2 | %21
 !arpeggio![B,,E,G,_D]2 !arpeggio![B,,E,G,D]2 !arpeggio![B,,E,G,D]2 !arpeggio![A,,E,_G,C]2 | %22
 .[E,,E,].[G,B,E] .B,,.[A,B,D] .[E,,E,].[G,B,E] .B,,.[A,B,D] | %23
 [E,,E,] z [G,B,E]2 !arpeggio!!tenuto![G,,B,]2 !arpeggio!!tenuto![^F,,=A,]2 | %24
 !arpeggio!!>![=F,,_A,]2 [B,DA]2 [B,,,B,,]2 [B,DA]2 |1 [F,,A,]2 [A,B,D]2 [E,E] z z2 :|2 %26
 [F,,A,]2 [A,B,D]2 [E,E] z !arpeggio!!^![E,,B,,G,] z |][K:Ab][M:4/4]"_tremolo" !///-!E,,4 E,4 | %28
 !///-!E,,4 E,4 | !///-!E,,4- E,4- | [E,,E,]2 z2 !arpeggio!!^![E,,B,,G,] || z z2 |: %32
 [B,,,B,,]2 [_F,A,D]2 [B,,,B,,]2 [F,A,D]2 | E,,2 [E,G,D]2 E,,2 [E,G,D]2 | %34
 A,,2 [E,A,C]2 E,,2 [E,A,C]2 | A,,2 [E,A,C]2 ([C,,C,]2 [_C,,_C,]2 | %36
 !^![B,,,B,,]) z [E,G,D]2 E,,2 [E,G,D]2 | [B,,,B,,]2 [E,G,D]2 ([B,,,B,,]2 [=A,,,=A,,]2 | %38
 !^![_A,,,_A,,]) z [E,A,C]2 E,,2 [E,A,C]2 | [A,,A,]2 !>![E,,E,]2 [A,,,A,,] z z2 | %40
 [B,,,B,,]2 [_F,A,D]2 [B,,,B,,]2 [F,A,D]2 | E,,2 [E,G,D]2 E,,2 [E,G,D]2 | %42
 A,,2 [E,A,C]2 E,,2 [E,A,C]2 | A,,2 [E,A,C]2 [E,,E,]2 ([C,,C,]2 | %44
 !^![=B,,,=B,,]) z [=E,^G,=D]2 =E,,2 [E,G,D]2 | !^!_E,, z [_E,_A,=C]2 E,,2 [E,A,C]2 | %46
 [B,,,B,,]2 [E,G,_D]2 E,,2 [E,G,D]2 |1 [A,,A,]2 (!>![_C,_C]2 [B,,B,]) z z2 :|2 %48
 [A,,A,]2 !>![E,,E,]2 !^![A,,,A,,] z z2 || %49
[K:Eb][M:2/2] .[E,,B,,]2 .[B,,,B,,]2 .[E,,B,,]2 .[B,,,B,,]2 | %50
 .[E,,B,,]2 .[B,,,B,,]2 .[E,,B,,]2 .[B,,,B,,]2 |: .[E,,B,,]2 .[B,,,B,,]2 .[E,,B,,]2 .[B,,,B,,]2 | %52
"_simile" .[E,,B,,]2 .[B,,,B,,]2 .[E,,B,,]2 .[B,,,B,,]2 | .[A,,E,]2 .[E,,E,]2 .[A,,E,]2 .[E,,E,]2 | %54
 .[A,,E,]2 .[E,,E,]2 .[A,,E,]2 !>![=E,,=E,]2 | !>![F,,F,]2 [A,B,=D]2 [=E,,=E,]2 [G,^C]2 | %56
 [F,,F,]2 [A,B,D]2 B,,,2 (3(B,=B,=C | !>!_D8) | z8 | %59
 .[E,,B,,]2 .[B,,,B,,]2 .[E,,B,,]2 .[B,,,B,,]2 | %60
"_simile" .[E,,B,,]2 .[B,,,B,,]2 .[E,,B,,]2 .[B,,,B,,]2 | .[A,,E,]2 .[E,,E,]2 .[A,,E,]2 .[E,,E,]2 | %62
 .[A,,E,]2 .[E,,E,]2 .[A,,E,]2 !>![=E,,=E,]2 | !>![F,,F,]2 [A,B,=D]2 [=E,,=E,]2 [G,^C]2 | %64
 [F,,F,]2 [A,B,D]2 B,,,2 (3(G,A,=B, | !>!B,8-) |1 B,2 B,,2 [E,,E,]2 z2 :|2 %67
{/x-} B,2 B,,2 [E,,E,]2 !>![B,,,B,,]2 || !>![E,,E,]2 [_DEG]2 B,,2 [DE]2 | %69
 [E,,E,]2 [B,,,B,,]2 [_DEG]2 !>![B,,,B,,]2 | !>![E,,E,]2 [_DEG]2 B,,2 [DE]2 | %71
 [E,,E,]2 [B,,,B,,]2 [_DEG]2 !>![E,,E,]2 | !>![A,,A,]2 [A,C_G]2 [E,,E,]2 [A,CG]2 | %73
 [A,,A,]2 [E,,E,]2 [!courtesy!_A,C_G]2 !>![B,,,B,,]2 | !>![E,,E,]2 [B,E=G]2 [B,,,B,,]2 [B,E]2 | %75
 [E,,E,]2 [B,,,B,,]2 [G,B,=E]2 [C,,C,]2 | !arpeggio!!>![F,,C,=A,]2 [A,C_EF]2 [C,,C,]2 [A,CEF]2 | %77
 [F,,F,]2 [=A,CEF]2 [F,,F,]2 [B,,,B,,]2 | [E,,E,]2 [_DE]2 [CE]2 [_CE]2 | %79
 [B,E]2 !>![B,,B,]2 !>![E,,E,]2 !>![E,,,E,,]2 || .[E,,B,,]2 .[B,,,B,,]2 .[E,,B,,]2 .[B,,,B,,]2 | %81
 .[E,,B,,]2 .[B,,,B,,]2 .[E,,B,,]2 .[B,,,B,,]2 || .[E,,B,,]2 .[B,,,B,,]2 .[E,,B,,]2 .[B,,,B,,]2 | %83
"_simile" .[E,,B,,]2 .[B,,,B,,]2 .[E,,B,,]2 .[B,,,B,,]2 | .[A,,E,]2 .[E,,E,]2 .[A,,E,]2 .[E,,E,]2 | %85
 .[A,,E,]2 .[E,,E,]2 .[A,,E,]2 !>![=E,,=E,]2 | !>![F,,F,]2 [A,B,=D]2 [=E,,=E,]2 [G,^C]2 | %87
 [F,,F,]2 [A,B,D]2 B,,,2 (3(B,=B,=C | !>!_D8) | z8 | %90
 .[E,,B,,]2 .[B,,,B,,]2 .[E,,B,,]2 .[B,,,B,,]2 | %91
"_simile" .[E,,B,,]2 .[B,,,B,,]2 .[E,,B,,]2 .[B,,,B,,]2 | .[A,,E,]2 .[E,,E,]2 .[A,,E,]2 .[E,,E,]2 | %93
 .[A,,E,]2 .[E,,E,]2 .[A,,E,]2 !>![=E,,=E,]2 | !>![F,,F,]2 [A,B,=D]2 [=E,,=E,]2 [G,^C]2 | %95
 [F,,F,]2 [A,B,D]2 B,,,2 (3(G,A,=B, | !>!B,8-) | B,2 B,,2 [E,,E,]2 [E,,,E,,]2 |] %98
[K:Ab][M:2/2] (E,, | !>![A,,C,E,])(E,, !>![A,,C,F,])(E,, !>![A,,C,_G,])(E,, !>![A,,C,F,])(E,, | %100
 !>![A,,C,E,])(((E,, !>![A,,C,F,])))(((E,, !>![A,,C,_G,])))(((E,, !>![A,,C,F,])))(E,, | %101
 !>![A,,C,E,])((E,, !>![A,,C,F,]))((E,, !>![A,,C,_G,]))((E,, !>![A,,C,F,]))E,, | %102
 !>![A,,C,E,]((((E,, !>![A,,C,F,]))))((((E,, !>![A,,C,_G,]))))((((E,, !>![A,,C,F,]))))((E,, | %103
 !>![A,,C,E,]))((((E,, !>![A,,C,F,]))))((((E,, !>![A,,C,_G,]))))((((E,, !>![A,,C,F,]))))(E,, || %104
 !>![A,,C,E,])((E,, !>![A,,C,F,]))((E,, !>![A,,C,_G,]))((E,, !>![A,,C,F,]))(E,, | %105
 !>![A,,C,E,])((E,, !>![A,,C,F,]))((E,, !>![A,,C,_G,]))((E,, !>![A,,C,F,]))(E,, | %106
 !>![A,,C,E,])((E,, !>![A,,C,F,]))((E,, !>![A,,C,_G,]))((E,, !>![A,,C,F,]))(E,, | %107
 !>![A,,C,E,])((E,, !>![A,,C,F,]))((E,, !>![A,,C,_G,]))((E,, !>![A,,C,F,]))(E,, | %108
 !>![D,F,A,])(A,, !>![D,F,B,])(A,, !>![D,F,_C])(A,, !>![D,F,B,])(A,, | %109
 !>![D,F,A,])(A,, !>![D,F,B,])(A,, !>![D,F,_C])(A,, !>![D,F,B,])(A,, | %110
 !>![D,F,A,])(A,, !>![D,F,B,])(A,, !>![D,F,_C])(A,, !>![D,F,B,])(A,, | %111
 !>![D,F,A,])(A,, !>![D,F,B,])(A,, !>![D,F,_C])(A,, !>![D,F,A,]2) | B,,2 [E,G,D]2 E,,2 [E,G,D]2 | %113
 B,,2 [E,G,D]2 E,,2 [E,G,D]2 | A,,(_G,A,G, B,A,G,B, | A,_G,B,A, G,B,A,G,) | %116
 !arpeggio!!>![B,,E,!courtesy!=G,D]8- | [B,,E,G,D]6 E,2 | A,,2 ([G,_A,]2 [F,A,]2 [_F,A,]2 | %119
 [E,A,]2) !>![A,,A,]2 !>![_G,,_G,]2 !>![F,,!courtesy!=F,]2 |: %120
[K:Db] !arpeggio![E,,G,]2 [G,A,C]2 A,,2 [G,A,C]2 | !arpeggio![E,,G,]2 [G,A,C]2 A,,2 !>![G,A,C]2 | %122
 D,2 [A,DF]2 A,,2 [A,DF]2 | D,2 [A,DF]2 B,,2 !>![A,B,=DF]2 | B,,2 [B,_DE=G]2 E,,2 [B,DEG]2 | %125
 B,,2 [B,DE=G]2 E,,2 [B,DEG]2 | (!courtesy!_G3 F/_F/) E4- | E6 z2 | %128
 !arpeggio![E,,G,]2 [G,A,C]2 A,,2 [G,A,C]2 | !arpeggio![E,,G,]2 [G,A,C]2 A,,2 !>![G,A,C]2 | %130
 D,2 [A,DF]2 A,,2 [A,DF]2 | D,2 [A,DF]2 B,,2 !>![A,B,=DF]2 | B,,2 [B,_DE=G]2 E,,2 [B,DEG]2 | %133
 D,2 [A,DF]2 A,,2 [_G,A,C]2 | [D,,D,]2 _C2 B, __B,2 A,- |1 %135
 A,2 !>![A,,A,]2 !>![G,,G,]2 !>![F,,F,]2 :|2{/x-} A,2 !>![A,,A,]2 !>![D,,D,]2 z (E,, || %137
[K:Ab] !>![A,,C,E,])(E,, !>![A,,C,F,])(E,, !>![A,,C,_G,])(E,, !>![A,,C,F,])(E,, | %138
 !>![A,,C,E,])(((E,, !>![A,,C,F,])))(((E,, !>![A,,C,_G,])))(((E,, !>![A,,C,F,])))(E,, | %139
 !>![A,,C,E,])((E,, !>![A,,C,F,]))((E,, !>![A,,C,_G,]))((E,, !>![A,,C,F,]))E,, | %140
 !>![A,,C,E,]((((E,, !>![A,,C,F,]))))((((E,, !>![A,,C,_G,]))))((((E,, !>![A,,C,F,]))))((E,, | %141
 !>![A,,C,E,]))((((E,, !>![A,,C,F,]))))((((E,, !>![A,,C,_G,]))))((((E,, !>![A,,C,F,]))))(E,, || %142
 !>![A,,C,E,])((E,, !>![A,,C,F,]))((E,, !>![A,,C,_G,]))((E,, !>![A,,C,F,]))(E,, | %143
 !>![A,,C,E,])((E,, !>![A,,C,F,]))((E,, !>![A,,C,_G,]))((E,, !>![A,,C,F,]))(E,, | %144
 !>![A,,C,E,])((E,, !>![A,,C,F,]))((E,, !>![A,,C,_G,]))((E,, !>![A,,C,F,]))(E,, | %145
 !>![A,,C,E,])((E,, !>![A,,C,F,]))((E,, !>![A,,C,_G,]))((E,, !>![A,,C,F,]))(E,, | %146
 !>![D,F,A,])(A,, !>![D,F,B,])(A,, !>![D,F,_C])(A,, !>![D,F,B,])(A,, | %147
 !>![D,F,A,])(A,, !>![D,F,B,])(A,, !>![D,F,_C])(A,, !>![D,F,B,])(A,, | %148
 !>![D,F,A,])(A,, !>![D,F,B,])(A,, !>![D,F,_C])(A,, !>![D,F,B,])(A,, | %149
 !>![D,F,A,])(A,, !>![D,F,B,])(A,, !>![D,F,_C])(A,, !>![D,F,A,]2) | B,,2 [E,G,D]2 E,,2 [E,G,D]2 | %151
 B,,2 [E,G,D]2 E,,2 [E,G,D]2 | A,,(_G,A,G, !>!B,A,G,!>!B, | A,_G,!>!B,A, G,!>!B,A,G,) | %154
 !arpeggio!!>![B,,E,!courtesy!=G,D]8- | [B,,E,G,D]6 E,2 |!ped! z2[K:treble] .A2 .a2 .a'2 | %157
!8va(! !^!a''6 z2!ped-up!!8va)! |] %158
V:3
 x8 | x8 |: x8 | x8 | x8 | x8 | x8 | x8 | x8 | x8 | x8 | x8 | x8 |1 x8 :|2 x8 |: x8 | x8 | x8 | %18
 x8 | x8 | x8 | x8 | x8 | x8 | x8 |1 x8 :|2 x8 |][K:Ab][M:4/4] x8 | x8 | x8 | x5 || x3 |: x8 | x8 | %34
 x8 | x8 | x8 | x8 | x8 | x8 | x8 | x8 | x8 | x8 | x8 | x8 | x8 |1 x8 :|2 x8 ||[K:Eb][M:2/2] x8 | %50
 x8 |: x8 | x8 | x8 | x8 | x8 | x8 | x8 | x8 | x8 | x8 | x8 | x8 | x8 | x8 | x8 |1 x8 :|2 x8 || %68
 x8 | x8 | x8 | x8 | x8 | x8 | x8 | x8 | x8 | x8 | x8 | x8 || x8 | x8 || x8 | x8 | x8 | x8 | x8 | %87
 x8 | x8 | x8 | x8 | x8 | x8 | x8 | x8 | x8 | x8 | x8 |][K:Ab][M:2/2] x | x8 | x8 | x8 | %102
!8va(! x3!8va)! x5 | x8 || x8 | x8 | x8 | x8 | x8 | x8 | _c2 A!>!a- aA !>!d2 | %111
 .!courtesy!_c !>!a2 .A .d.A!>!a.A | x8 | x8 | x8 | x8 | x8 | x6 ((=D_D)) | x8 | x8 |:[K:Db] x8 | %121
 x8 | x8 | x8 | x8 | x8 | x8 | x8 | x8 | x8 | x8 | x8 | x8 | x8 | x8 |1 x8 :|2 x8 ||[K:Ab] x8 | %138
 x8 | x8 |!8va(! x3!8va)! x5 | x8 || x8 | x8 | x8 | x8 | x8 | x8 | _c2 A!>!a- aA !>!d2 | %149
 .!courtesy!_c !>!a2 .A .d.A!>!a.A | x8 | x8 | x8 | x8 | x8 | x8 | !>!_G,8- | G,6 x2 |] %158
V:4
 x8 | x8 |: x8 | x8 | x8 | x8 | x8 | x8 | x8 | x8 | x8 | x8 | x8 |1 x8 :|2 x8 |: x8 | x8 | x8 | %18
 x8 | x8 | x8 | x8 | x8 | x8 | x8 |1 x8 :|2 x8 |][K:Ab][M:4/4] x8 | x8 | x8 | x5 || x3 |: x8 | x8 | %34
 x8 | x8 | x8 | x8 | x8 | x8 | x8 | x8 | x8 | x8 | x8 | x8 | x8 |1 x8 :|2 x8 ||[K:Eb][M:2/2] x8 | %50
 x8 |: x8 | x8 | x8 | x8 | x8 | x8 | x8 | x8 | x8 | x8 | x8 | x8 | x8 | x8 | x8 |1 x8 :|2 x8 || %68
 x8 | x8 | x8 | x8 | x8 | x8 | x8 | x8 | x8 | x8 | x8 | x8 || x8 | x8 || x8 | x8 | x8 | x8 | x8 | %87
 x8 | x8 | x8 | x8 | x8 | x8 | x8 | x8 | x8 | x8 | x8 |][K:Ab][M:2/2] x | x8 | x8 | x8 | x8 | x8 || %104
 x8 | x8 | x8 | x8 | x8 | x8 | x8 | x8 | x8 | x8 | x8 | x8 | x8 | x8 | x8 | x8 |:[K:Db] x8 | x8 | %122
 x8 | x8 | x8 | x8 | x8 | x8 | x8 | x8 | x8 | x8 | x8 | x8 | x2 D,6- |1 D,2 x6 :|2{/x-} D,2 x6 || %137
[K:Ab] x8 | x8 | x8 | x8 | x8 || x8 | x8 | x8 | x8 | x8 | x8 | x8 | x8 | x8 | x8 | x8 | x8 | x8 | %155
 x8 | x2[K:treble] x6 |!8va(! x8!8va)! |] %158
V:5
 x8 | x8 |: x8 | x8 | x8 | x8 | x8 | x8 | x8 | x8 | x8 | x8 | x8 |1 x8 :|2 x8 |: x8 | x8 | x8 | %18
 x8 | x8 | x8 | x8 | x8 | x8 | x8 |1 x8 :|2 x8 |][K:Ab][M:4/4] x8 | x8 | x8 | x5 || x3 |: x8 | x8 | %34
 x8 | x8 | x8 | x8 | x8 | x8 | x8 | x8 | x8 | x8 | x8 | x8 | x8 |1 x8 :|2 x8 ||[K:Eb][M:2/2] x8 | %50
 x8 |: x8 | x8 | x8 | x8 | x8 | x8 | x8 | x8 | x8 | x8 | x8 | x8 | x8 | x8 | x8 |1 x8 :|2 x8 || %68
 x8 | x8 | x8 | x8 | x8 | x8 | x8 | x8 | x8 | x8 | x8 | x8 || x8 | x8 || x8 | x8 | x8 | x8 | x8 | %87
 x8 | x8 | x8 | x8 | x8 | x8 | x8 | x8 | x8 | x8 | x8 |][K:Ab][M:2/2] x | x8 | x8 | x8 | x8 | x8 || %104
 x8 | x8 | x8 | x8 | x8 | x8 | x8 | x8 | x8 | x8 | x8 | x8 | x8 | x8 | x8 | x8 |:[K:Db] x8 | x8 | %122
 x8 | x8 | x8 | x8 | x8 | x8 | x8 | x8 | x8 | x8 | x8 | x8 | x8 |1 x8 :|2 x8 ||[K:Ab] x8 | x8 | %139
 x8 | x8 | x8 || x8 | x8 | x8 | x8 | x8 | x8 | x8 | x8 | x8 | x8 | x8 | x8 | x8 | x8 | %156
 [A,,,A,,]8-[K:treble] | [A,,,A,,]6!8va(! x2!8va)! |] %158

